X: 1
T: Prokleta da je Australija
O: Macedonia
R: lesnoto
M: 7/8
L: 1/8
N: Words transcribed by Martha Forsyth
Z: From versions by Jack McCreless and Tom Pixton
K: F
P: Instr:
| "Bb"[dB][ec]{e}[dB] ~[dB][cA] [d2B2] | "C7"[dB][cA][BG] "F"[AF][BG] [cA][AF] \
| "Gm"[B2G2][AF] "C7"~[e2c2] [ec][fd] | ~[ec][dB][ec] "F"[c4A4] |
| "Gm"[B2G2][AF] "Bb"~[d2B2] [dB][cA] | "C"~[cA][BG][cA] "F"[A2F2] [cA][dB] \
| "C7"[e2c2][dB] "Bb"[dB][cA] [d2B2] | "C7"[dB][cA][BG] "F"[A2F2] z2 ||
P: Vocal:
|: "F"[c2A2][cA] "C7"[dB][cA] [BG][AF] | "F"[A3-F3-] [A4F4] \
| "C7"[e2-c2-][ec] "Bb"[ec][dB] [dB][cA] | "F"[c3-A3-] [c4A4] |
w: 1.~Pro-kle-ta* da* je* Aus-*tra-*li-*ja!
w:    si ja o-*sta-*va* mo-ja-ta* \vze-*na
w: 2.~Moj-te dru-*ga-*ri* pes-na mi* pe-*jat,
w:    Ko-mu o-*sta-*va\vs* mla-da ne-*ves-*ta
w: 3.~Pro-kle-ta* da* je* Aus-*tra-*li-*ja
w:    Te\vz-ka pe-*\vcal-*ba,* cr-na tu-*gi-*na
| "F"[c2A2][cA] [c2A2] [BG][AF] | "Gm"[B3-G3-] [B2G2] [cA][dB] \
| "C7"[e2c2][dB] [c2A2] [B2G2] | "F"[A3-F3-] [A4F4] :|
w: 1.~mi ja za pus-*ti*** fa-mi-li-ja-ta.
w:    cvek-je~v gra-di-*na*** da mi o-ve-ne.
w: 2.~A bre Sto-ja-*ne,*** ne-moj, ne o-di.
w:    ma\vs-ko de-ten-*ce*** i sta-ra maj-ko.
w: 3.~\vsto me o-sta-*vi*** bez fa-mi-li-ja.
w:    'no-gu da-le-*ku,*** sam bez ni-ko-go.
| "Bb"[d3-B3-] [d2B2] [c2A2] | "Gm"[B3-G3-] [B2G2] [cA][dB] \
| "C7"[e3c3] "Bb"[e2c2] [d2B2] | "F"[c3-A3-] [c4A4] |
w: Eh______ Aus-tra-li-ja.
| "F"[c3-A3-] [c2A2] "C7"[B2G2] | "F"[A3-F3-] [A4F4] \
| "C7"[cA][d2B2] [cA][BG] [BG][AF] | "F"[A3-F3-] [A4F4] |]
w: Eh____ zem-ja da-*le\vc-*na!
